X: 1
T: Friday Evening
C: Frank Reid
R: jig
Z: 2011 John Chambers <jc:trillian.mit.edu>
S: From Mike Briggs on strathspey list, 2011-5-30
M: 6/8
L: 1/8
K: D
zFG |\
"D"ABA AFA | f2A "D7"d2A | "G"Bdg gdB | "A7"AGF EFG |\
"D"ABA AFA | "Bm"f2A d2A | "G"B<dB "A7"AFE | "D"D3 :|
|: "F#7"F3 |\
"Bm"B^AB dcd | fed B2_B | "D"ABA dBA | "E7"FED "A7"E2A |\
"D"ABA AFA | "Bm"f2A d2A | "G"B<dB "A7"AFE | "D"D3 :|
